fs/control_button_24_filled.svg

<svg viewBox="0 0 24 24" fill="none" xmlns="http://www.w3.org/2000/svg" height="1em" width="1em">
  <path d="M2 7.25C2 5.45507 3.45507 4 5.25 4H18.75C20.5449 4 22 5.45507 22 7.25V16.75C22 18.5449 20.5449 20 18.75 20H5.25C3.45507 20 2 18.5449 2 16.75V7.25ZM7.75 8C6.23122 8 5 9.23122 5 10.75V13.25C5 14.7688 6.23122 16 7.75 16H8.25C8.66421 16 9 15.6642 9 15.25C9 14.8358 8.66421 14.5 8.25 14.5H7.75C7.05964 14.5 6.5 13.9404 6.5 13.25V10.75C6.5 10.0596 7.05964 9.5 7.75 9.5H8.25C8.66421 9.5 9 9.16421 9 8.75C9 8.33579 8.66421 8 8.25 8H7.75ZM11.5 8.75C11.5 8.33579 11.1642 8 10.75 8C10.3358 8 10 8.33579 10 8.75V11H9.75C9.33579 11 9 11.3358 9 11.75C9 12.1642 9.33579 12.5 9.75 12.5H10V14C10 15.1046 10.8954 16 12 16H12.25C12.6642 16 13 15.6642 13 15.25C13 14.8358 12.6642 14.5 12.25 14.5H12C11.7239 14.5 11.5 14.2761 11.5 14V12.5H12.25C12.6642 12.5 13 12.1642 13 11.75C13 11.3358 12.6642 11 12.25 11H11.5V8.75ZM19.5 8.75006C19.5 8.33584 19.1642 8.00006 18.75 8.00006C18.3358 8.00006 18 8.33584 18 8.75006V15.2501C18 15.6643 18.3358 16.0001 18.75 16.0001C19.1642 16.0001 19.5 15.6643 19.5 15.2501V8.75006ZM15.5 13C15.5 12.7239 15.7239 12.5 16 12.5H16.25C16.6642 12.5 17 12.1642 17 11.75C17 11.3358 16.6642 11 16.25 11H16C14.8954 11 14 11.8954 14 13V15.25C14 15.6642 14.3358 16 14.75 16C15.1642 16 15.5 15.6642 15.5 15.25V13Z" fill="#212121"/>
</svg>

<svg viewBox="0 0 24 24" fill="none" xmlns="http://www.w3.org/2000/svg" height="1em" width="1em">
  <path d="M2 7.25A3.25 3.25 0 0 1 5.25 4h13.5A3.25 3.25 0 0 1 22 7.25v9.5A3.25 3.25 0 0 1 18.75 20H5.25A3.25 3.25 0 0 1 2 16.75v-9.5ZM7.75 8A2.75 2.75 0 0 0 5 10.75v2.5A2.75 2.75 0 0 0 7.75 16h.5a.75.75 0 0 0 0-1.5h-.5c-.69 0-1.25-.56-1.25-1.25v-2.5c0-.69.56-1.25 1.25-1.25h.5a.75.75 0 0 0 0-1.5h-.5Zm3.75.75a.75.75 0 0 0-1.5 0V11h-.25a.75.75 0 0 0 0 1.5H10V14a2 2 0 0 0 2 2h.25a.75.75 0 0 0 0-1.5H12a.5.5 0 0 1-.5-.5v-1.5h.75a.75.75 0 0 0 0-1.5h-.75V8.75Zm8 0a.75.75 0 0 0-1.5 0v6.5a.75.75 0 0 0 1.5 0v-6.5Zm-4 4.25a.5.5 0 0 1 .5-.5h.25a.75.75 0 0 0 0-1.5H16a2 2 0 0 0-2 2v2.25a.75.75 0 0 0 1.5 0V13Z" fill="#212121"/>
</svg>
